T: In Memory Of Coleman
M: 4/4
L: 1/8
K: Gdor
| DGBd c/d/c/B GF | D~F3 GFDF | GABc dfga | (3bag af dg{a}ga || (3bag ag {a}gfdc | (3Bcd BG FDCD | FGBd c/d/c/A Bc |1 dgdc BGGF :|2 dgdc BGGA ||| [B3D3] d g2 fg | e~c3 A~F3 | (3Bcd ga fdcA | FGAc BGGA || B2 fB FBfB | DBfB A~F3 | GABc dgag | fdcA BGGA || ~B3 d g2 fg | e~c3 A~F3 | (3Bcd ga fdcA | FGAc BGGA || B2 fB FBfB | DBfB A~F3 | GABc dgag | fdcA B2 AF ||It's also common to play bars 5 and 6 staying on the low F, instead of dropping down to the open D: |B2 fB FBfB | FBfB A~F3 |
